X:2747
T:Bagatelle 2
C:Antonio Diabelli
Z:Transcribed by Frank Nordberg - http://www.musicaviva.com
F:http://abc.musicaviva.com/tunes/diabelli-antonio/diab-bgt02/diab-bgt02-pno2.abc
V:1 Program 1 0 %Piano
V:2 Program 1 0 bass %Piano
M:4/4
L:1/8
Q:1/4=88
K:Am
V:1
A2ABc2c2|{c}BABcA4|e2ee e^d^cd|e4E2^F^G|
V:2
A,ECE A,ECE|^G,EDE A,ECE|^G,EB,E ^F,B,A,B,|E,B,^G,B, E,DB,D|
%
V:1
A2ABc2c2|{e}d^cd^de4|=d2dA cBAB|c4C,2z2:|
V:2
A,ECE A,ECE|B,GFG CGEG|F,DA,D G,FDF|CGEGE2z2:|
%
V:1
|:e2efg2e2|d^cBcA4|d2A z e2 F z|f4d2z2|
V:2
|:_B,GCG B,GCG|A,GEG A,GEG|A,FDF A,G^CG|DAFA DAFA|
%
V:1
e2eea3e|b3ec'4|b2ba a^g^fg|a4A2z2:|
V:2
D^GEG CAEA|^G,EDE A,EDE|D,B,F,B, E,DB,D|A,ECE C2z2:|
W:
W:
W:  From Musica Viva - http://www.musicaviva.com
W:  the Internet center for free sheet music downloads.
